X:152
T:The Cotillion
S:Ira W Ford, Traditional Music of America, 1940
S:Colin Hume's website,  colinhume.com  - chords can also be printed below the stave.
N:For Waltz Cotillion I suggest: Intro (last 8 bars of C), 4 x (AABBCC  AABBCC  BB)
L:1/4
M:3/4
%%MIDI beat 100 95 80
%%MIDI program 71
%%MIDI chordprog 48
%%MIDI bassprog 46
Q:1/4=130
K:A
P:A
|: "A"EAc | "E7"d2G | "F#m"Acf | "E7"e3 |\
"A"EAc | "E7"d2G | "A"BAc | "E7"E3 |
"A"EAc | "E7"d2G | "F#m"Acf | "A7"e3 |\
"F#7"edc | "Bm"^AB3/c/ | "E7"dE-E/ G/ | "A"Az2 :|
P:B
|: "A"e/ z/e/ z/f/ z/ | "A"e/ z/e/ z/a/ z/ | "D"agf | "E7"e3 |\
"A"e/ z/e/ z/f/ z/ | "F#m"e/ z/e/ z/a/ z/ | "B7"agf | "E7"e3 |
"A"EAc | "E7"d2G | "F#m"Acf | "C#m"e3 |\
"A"eac' | "Bm"cdb | "E7"Bdg |1 "A"a3 :|2 "A"a2 ||
P:C
|:e | "A"c'2b | "A"a2e | "D"g2f | "Bm"d'2d' |\
"E7"c'2b | "E7"f2g | "A"baf | "E7"e2e |
"A"c'2b | "A"a2e | "D"g2f | "Bm"d'3 |\
"E7"c'2b | "E7"f2g | "A"aec | "A"A2 :|

